X: 134
T: Ayrıldı Gönül Şimdi Yine
C: Zeki Duygulu
O: Turkey
F: http://compmusic.upf.edu/node/140
N: nihavent--yuruksemai--yuruksemai--ayrildi_gonul--zeki_duygulu
N: makam= nihavent
N: form= yuruksemai
N: usul= yuruksemai = 6/8
M: 6/8
L: 1/16
K: C _B _e  
Q: 1/4=84
%%MIDI tuningsystem comma53
c4d4 d2{g}f2_7/8e2d2 {e}d8  | d4c_1/4Bc2 fgf2_7/8e2d2 d4ede2  | \
w:  Ay rıl dı  *  *  gö *  *  nül   |  şim *  *  *  di  *  *  yi *  ne   | 
f2{g}f2e2d2 g4f2e2 edefe2d2  | 
w:  bir  *  *  *  *  tek  e *  şin  | 
{e}d4{e}c4 {d}B4{c}A4 G4Bcd2  | c4d4 d2{g}f2_7/8e2d2 {e}d8  | \
w:  *  den   *  *  *  *  *  *  *  SAZ  |  Ay rıl dı  *  *  gö *  *  nül   | 
d4c_1/4Bc2 fgf2_7/8e2d2 d4ede2  | 
w:  şim *  *  *  di  *  *  yi *  ne   | 
f2{g}f2e2d2 g4f2e2 edefe2d2  | {e}d8 d2{e}dcB3/2A/Bc defgfedc  | 
w:  bir  *  *  *  *  tek  e *  şin  |  *  den   SAZ  | 
d4f4 {g}f2e2{f}e2d2 g6f2  | f2g2{g}g2f2 {g}f2e2e2d2 {e}d4c2B2  | \
w:  Bul mak *  ta  *  *  te *  sel  |  lî  *  *  *  *  *  ba *  tan  *  *  ak  | 
c4d4 B4c4 d4{f}e4  | 
w:  şam  *  gü ne şin  | 
{f}d4{e}c4 {d}B4A4 G8  | G4A4 B3AG4 g8  | \
w:  *  den    |  Câ nım  ye  *  le  lel   | 
f4{g}e4 d4c4 B8  | B3AG4 A2c2{c}B2A2 {B}A2G2{A}G2^F2  | 
w:  ye  *  lel  lel  lel  li    |  Öm *  rüm  ye  *  *  le *  *  lel  *  *  lel   | 
G8 d2dcB3/2A/Bc defgfedc  | d4f4 {g}f2e2{f}e2d2 g6f2  | 
w:  li   SAZ  |  Bul mak *  ta  *  *  te *  sel  | 
f2g2{g}g2f2 {g}f2e2e2d2 {e}d4c2B2  | \
w:  lî  *  *  *  *  *  ba *  tan  *  *  ak  | 
c4d4 B4c4 d4{f}e4  | {f}d4{e}c4 {d}B4A4 G8  | 
w:  şam  *  gü ne şin  |  *  den    | 
G4A4 B3AG4 g8  | f4{g}e4 d4c4 B8  | B3AG4 A2c2{c}B2A2 {B}A2G2{A}G2^F2  | 
w:  Câ nım  ye  *  le  lel   |  ye  *  lel  lel  lel  li    |  Öm *  rüm  ye  *  *  le *  *  lel  *  *  lel   | 
G8 z2d2e2^f2 g2a2f2e2  | d4g4 g4g2^f2 g8  | \
w:  li   SAZ  |  Al nım da ki  *  hat  | 
a4{b}a2b2 a2g2g2^f2 g8  | 
w:  tı  *  *  *  ya *  şı *  mın   | 
a3g^f2g2 f4g4 f2e2{f}e2d2  | d8 z2d2e2^f2 g2a2f2e2  | \
w:  ma *  *  *  te mi  san  |  ma   SAZ  | 
d4g4 g4g2^f2 g8  | 
w:  Al nım da ki  *  hat  | 
a4{b}a2b2 a2g2g2^f2 g8  | a3g^f2g2 f4g4 f2e2{f}e2d2  | \
w:  tı  *  *  *  ya *  şı *  mın   |  ma *  *  *  te mi  san  | 
d8 d2{e}dcB3/2A/Bc defgfedc  | 
w:  ma   SAZ  | 
d4f4 {g}f2e2{f}e2d2 g6f2  | f2g2{g}g2f2 {g}f2e2e2d2 {e}d4c2B2  | \
w:  Bul mak *  ta  *  *  te *  sel  |  lî  *  *  *  *  *  ba *  tan  *  *  ak  | 
c4d4 B4c4 d4{f}e4  | 
w:  şam  *  gü ne şin  | 
{f}d4{e}c4 {d}B4A4 G8  | G4A4 B3AG4 g8  | \
w:  *  den    |  Câ nım  ye  *  le  lel   | 
f4{g}e4 d4c4 B8  | B3AG4 A2c2{c}B2A2 {B}A2G2{A}G2^F2  | 
w:  ye  *  lel  lel  lel  li    |  Öm *  rüm  ye  *  *  le *  *  lel  *  *  lel   | 
G8 d2dcB3/2A/Bc defgfedc  | d4f4 {g}f2e2{f}e2d2 g6f2  | 
w:  li   SAZ  |  Bul mak *  ta  *  *  te *  sel  | 
f2g2{g}g2f2 {g}f2e2e2d2 {e}d4c2B2  | \
w:  lî  *  *  *  *  *  ba *  tan  *  *  ak  | 
c4d4 B4c4 d4{f}e4  | {f}d4{e}c4 {d}B4A4 G8  | 
w:  şam  *  gü ne şin  |  *  den    | 
G4A4 B3AG4 g8  | f4{g}e4 d4c4 B8  | B3AG4 A2c2{c}B2A2 {B}A2G2{A}G2^F2  | 
w:  Câ nım  ye  *  le  lel   |  ye  *  lel  lel  lel  li    |  Öm *  rüm  ye  *  *  le *  *  lel  *  *  lel   | 
G8 z2D2E2^F2 G8  | |


